X:88
T: Die dienende Schwester
N: Q0075q
O: Mitteleuropa, Deutschland (BRD) , Niedersachsen, Hannover
N: Einschiebsel am Anfang der dritten Zeile.
R: Ballade, Adelige als Dienstmagd, Tod; Kinder - Spiel, Tanz
M: 4/4
L: 1/8
K: F
FA | c2c2c2d2 | B2G2G2
GA | B2B2B2c2 | A2F2F2z2
c4d4 | e4z2c2 | f2c2d2B2 | A4G4 | F4z2

